assets/icons/PHONE ICON.svg

<svg width="48" height="48" viewBox="0 0 48 48" fill="none" xmlns="http://www.w3.org/2000/svg">
<path d="M39.75 42C35.6833 42 31.6417 41 27.625 39C23.6083 37 20 34.4 16.8 31.2C13.6 28 11 24.3917 9 20.375C7 16.3583 6 12.3167 6 8.25C6 7.61667 6.21667 7.08333 6.65 6.65C7.08333 6.21667 7.61667 6 8.25 6H15.25C15.7167 6 16.125 6.15833 16.475 6.475C16.825 6.79167 17.05 7.21667 17.15 7.75L18.5 14.05C18.5667 14.5167 18.5583 14.9417 18.475 15.325C18.3917 15.7083 18.2167 16.0333 17.95 16.3L12.95 21.35C14.8167 24.45 16.9083 27.15 19.225 29.45C21.5417 31.75 24.1667 33.7 27.1 35.3L31.85 30.4C32.1833 30.0333 32.5667 29.775 33 29.625C33.4333 29.475 33.8667 29.45 34.3 29.55L40.25 30.85C40.75 30.95 41.1667 31.2 41.5 31.6C41.8333 32 42 32.4667 42 33V39.75C42 40.3833 41.7833 40.9167 41.35 41.35C40.9167 41.7833 40.3833 42 39.75 42Z" fill="#F9FBFE"/>
</svg>

<svg xmlns="http://www.w3.org/2000/svg" height="48" width="48"><path d="M39.75 42q-6.1 0-12.125-3T16.8 31.2Q12 26.4 9 20.375 6 14.35 6 8.25q0-.95.65-1.6Q7.3 6 8.25 6h7q.7 0 1.225.475.525.475.675 1.275l1.35 6.3q.1.7-.025 1.275t-.525.975l-5 5.05q2.8 4.65 6.275 8.1Q22.7 32.9 27.1 35.3l4.75-4.9q.5-.55 1.15-.775.65-.225 1.3-.075l5.95 1.3q.75.15 1.25.75T42 33v6.75q0 .95-.65 1.6-.65.65-1.6.65Z"/></svg>
